2 Export/Icons/Rounded/1 Player/Rewind.svg

<svg xmlns="http://www.w3.org/2000/svg" xmlns:xlink="http://www.w3.org/1999/xlink" width="24" height="24" viewBox="0 0 24 24">
  <defs>
    <path id="rewind-a" d="M5.58 16.89l5.77-4.07c.56-.4.56-1.24 0-1.63L5.58 7.11C4.91 6.65 4 7.12 4 7.93v8.14c0 .81.91 1.28 1.58.82zM13 7.93v8.14c0 .81.91 1.28 1.58.82l5.77-4.07c.56-.4.56-1.24 0-1.63l-5.77-4.07c-.67-.47-1.58 0-1.58.81z"/>
  </defs>
  <g fill="none" fill-rule="evenodd">
    <polygon points="0 0 24 0 24 24 0 24"/>
    <mask id="rewind-b" fill="#fff">
      <use xlink:href="#rewind-a"/>
    </mask>
    <use fill="#000" xlink:href="#rewind-a"/>
    <g fill="#000" mask="url(#rewind-b)">
      <rect width="24" height="24"/>
    </g>
  </g>
</svg>

<svg xmlns="http://www.w3.org/2000/svg" xmlns:xlink="http://www.w3.org/1999/xlink" width="24" height="24" viewBox="0 0 24 24">
  <defs>
    <path id="rewind-a" d="M5.58,16.89 L11.35,12.82 C11.91,12.42 11.91,11.58 11.35,11.19 L5.58,7.11 C4.91,6.65 4,7.12 4,7.93 L4,16.07 C4,16.88 4.91,17.35 5.58,16.89 Z M13,7.93 L13,16.07 C13,16.88 13.91,17.35 14.58,16.89 L20.35,12.82 C20.91,12.42 20.91,11.58 20.35,11.19 L14.58,7.12 C13.91,6.65 13,7.12 13,7.93 L13,7.93 Z"/>
  </defs>
  <g fill="none" fill-rule="evenodd">
    <polygon points="0 0 24 0 24 24 0 24"/>
    <mask id="rewind-b" fill="#fff">
      <use xlink:href="#rewind-a"/>
    </mask>
    <use fill="#000" xlink:href="#rewind-a"/>
    <g fill="#000" mask="url(#rewind-b)">
      <rect width="24" height="24"/>
    </g>
  </g>
</svg>
